src/img/masks/masks7.svg

<?xml version="1.0" encoding="UTF-8" standalone="yes"?>
<svg xmlns="http://www.w3.org/2000/svg" viewBox="0 0 126 126">
  <path fill-rule="evenodd" clip-rule="evenodd" d="M120.807 62.703c-.234-7.888-3.38-14.38-9.478-19.376-5.657-4.632-12.324-7.12-19.345-8.75-9.51-2.21-19.186-2.798-28.915-2.772-2.902.078-5.803.068-8.708.2-5.646.256-11.25.78-16.798 1.838-7.438 1.417-14.583 3.622-20.888 8.01-5.967 4.152-9.798 9.696-11.044 16.93-1.027 5.957-.272 11.745 1.774 17.374 2.73 7.508 7.92 12.622 15.373 15.455 5.075 1.93 10.355 2.51 15.755 2.57 5.51.06 10.348-1.586 14.638-5.016 2.172-1.737 4.08-3.782 6.35-5.4 2.375-1.692 4.363-1.724 6.795-.117 1.67 1.103 3.096 2.5 4.573 3.834 3.612 3.258 7.6 5.834 12.546 6.407 6.39.74 12.675.14 18.79-1.91 7.27-2.438 12.6-7.066 15.732-14.11 2.144-4.824 3.005-9.905 2.85-15.167zm-13.89-7.66a2 2 0 1 1-1.453 3.728c-1.03-.4-2.438-2.693-3.673-3.175 1.88-.824 4.098-.952 5.127-.55zm-14.705 3.124c8.164 0 14.783 7.807 14.783 7.807s-6.62 7.807-14.783 7.807-14.783-7.806-14.783-7.806 6.618-7.807 14.782-7.807zm-15.156 1.48c.227-2.037 1.227-4.02 2.09-4.71a2 2 0 1 1 2.498 3.124c-.863.69-3.553.76-4.588 1.588zm7.412-4.92c1.07-1.748 2.818-3.12 3.893-3.38a2 2 0 1 1 .936 3.89c-1.073.258-3.54-.82-4.828-.51zm15.01-.437a2 2 0 0 1-2.59 1.138c-1.03-.4-2.438-2.694-3.673-3.176 1.878-.824 4.096-.952 5.125-.552a2 2 0 0 1 1.137 2.59zm-78.358.776c1.03-.4 3.248-.273 5.126.552-1.235.48-2.644 2.774-3.673 3.175a2 2 0 0 1-1.453-3.727zm15.283 3.1c8.164 0 14.78 7.808 14.78 7.808s-6.616 7.807-14.78 7.807c-8.166 0-14.783-7.806-14.783-7.806s6.617-7.807 14.783-7.807zm-6.706-6.442c1.03-.4 3.247-.273 5.125.55-1.234.482-2.644 2.775-3.673 3.177a2 2 0 1 1-1.453-3.726zm7.568 1.124a2 2 0 0 1 2.412-1.477c1.074.26 2.822 1.63 3.893 3.38-1.29-.31-3.755.77-4.828.51a1.998 1.998 0 0 1-1.477-2.412zm8.816 2.424a2 2 0 0 1 2.812-.313c.863.69 1.863 2.674 2.09 4.712-1.035-.828-3.726-.898-4.588-1.59a2 2 0 0 1-.313-2.81zm18.79 19.076s-.378-.188-.91-.563c-.912.783-1.7 1.176-1.7 1.176s-41.665 26-51.998-11.5c0 0 6.28 10.5 13.624 10.876l-5.5.563s18.125 8.75 28.75-1.814c0 0-.924 4.625-4.306 5.375-2.945.654 15.746-2.11 17.645-11.534.02-.177.045-.356.08-.54.16-1.25.047-2.608-.46-4.092 0 0-12.322-23.667-32.41-14.667 0 0 20.134-15.108 35.71 12.44 15.62-28.386 36.053-13.054 36.053-13.054-20.09-9-32.41 14.667-32.41 14.667-4.5 13.167 20.645 16.917 17.264 16.167s-4.306-5.375-4.306-5.375c10.625 10.563 28.75 1.813 28.75 1.813l-5.5-.563c7.344-.375 13.624-10.875 13.624-10.875-10.334 37.5-52 11.5-52 11.5zm-11.717-13.21a2 2 0 0 1 2.81.324c.687.866 1.216 3.023.98 5.06-.823-1.037-3.43-1.71-4.115-2.574s-.54-2.124.325-2.81zm22.056 2.786c-.688.866-3.293 1.538-4.117 2.576-.234-2.037.295-4.195.98-5.06a2 2 0 0 1 3.136 2.484zm-11.25 9.86c-1.402-.98-3.882-3.26-3.485-6.858.035-.177.056-.358.08-.54.17-.93.53-1.942 1.148-3.038a68.2 68.2 0 0 1 1.69-3.28 66.38 66.38 0 0 1 2.034 3.894c2.794 4.955.4 8.217-1.468 9.823z"/>
</svg>

<?xml version="1.0" encoding="utf-8"?>
<!-- Generator: Adobe Illustrator 16.0.0, SVG Export Plug-In . SVG Version: 6.00 Build 0)  -->
<!DOCTYPE svg PUBLIC "-//W3C//DTD SVG 1.1//EN" "http://www.w3.org/Graphics/SVG/1.1/DTD/svg11.dtd">
<svg version="1.1" id="Layer_1" xmlns="http://www.w3.org/2000/svg" xmlns:xlink="http://www.w3.org/1999/xlink" x="0px" y="0px"
	 width="126px" height="126px" viewBox="0 0 126 126" enable-background="new 0 0 126 126" xml:space="preserve">
<path fill-rule="evenodd" clip-rule="evenodd" d="M120.807,62.703c-0.234-7.888-3.381-14.38-9.478-19.376
	c-5.656-4.632-12.323-7.121-19.344-8.751c-9.511-2.209-19.186-2.797-28.915-2.771c-2.902,0.078-5.803,0.068-8.708,0.2
	c-5.646,0.256-11.25,0.78-16.798,1.838c-7.438,1.417-14.583,3.622-20.888,8.009c-5.967,4.153-9.798,9.697-11.044,16.931
	C4.605,64.74,5.36,70.528,7.406,76.157c2.729,7.508,7.92,12.622,15.373,15.455c5.076,1.93,10.356,2.511,15.756,2.569
	c5.509,0.061,10.348-1.585,14.638-5.015c2.172-1.737,4.08-3.782,6.35-5.399c2.375-1.693,4.363-1.725,6.795-0.118
	c1.67,1.104,3.096,2.502,4.573,3.835c3.611,3.258,7.598,5.834,12.545,6.407c6.39,0.74,12.675,0.139,18.789-1.912
	c7.271-2.437,12.601-7.065,15.733-14.11C120.102,73.046,120.963,67.965,120.807,62.703z M106.917,55.044
	c1.028,0.4,1.538,1.561,1.137,2.59c-0.401,1.028-1.561,1.538-2.59,1.137s-2.438-2.694-3.673-3.176
	C103.669,54.771,105.888,54.643,106.917,55.044z M92.212,58.167c8.164,0,14.783,7.807,14.783,7.807s-6.619,7.807-14.783,7.807
	s-14.783-7.807-14.783-7.807S84.048,58.167,92.212,58.167z M77.056,59.648c0.227-2.038,1.227-4.022,2.09-4.712
	c0.862-0.69,2.121-0.55,2.811,0.313c0.69,0.862,0.55,2.121-0.313,2.812C80.781,58.75,78.091,58.821,77.056,59.648z M84.468,54.728
	c1.07-1.749,2.818-3.121,3.893-3.38c1.074-0.258,2.154,0.403,2.412,1.477c0.259,1.074-0.402,2.154-1.477,2.413
	C88.223,55.495,85.757,54.417,84.468,54.728z M99.477,54.29c-0.401,1.029-1.561,1.538-2.589,1.138
	c-1.029-0.401-2.438-2.694-3.673-3.176c1.878-0.824,4.096-0.952,5.125-0.552C99.369,52.102,99.878,53.261,99.477,54.29z
	 M21.12,55.066c1.029-0.401,3.248-0.273,5.126,0.552c-1.235,0.48-2.644,2.774-3.673,3.175c-1.029,0.401-2.188-0.107-2.59-1.137
	S20.092,55.468,21.12,55.066z M36.403,58.167c8.164,0,14.781,7.807,14.781,7.807s-6.617,7.807-14.781,7.807
	c-8.166,0-14.783-7.807-14.783-7.807S28.237,58.167,36.403,58.167z M29.697,51.724c1.029-0.401,3.247-0.273,5.125,0.551
	c-1.234,0.481-2.644,2.774-3.673,3.176c-1.028,0.401-2.188-0.107-2.589-1.137S28.668,52.125,29.697,51.724z M37.265,52.848
	c0.258-1.074,1.338-1.735,2.412-1.477s2.822,1.63,3.893,3.379c-1.289-0.31-3.755,0.769-4.828,0.51
	C37.667,55.002,37.006,53.922,37.265,52.848z M46.081,55.272c0.689-0.863,1.948-1.003,2.811-0.313
	c0.863,0.69,1.863,2.675,2.09,4.713c-1.035-0.828-3.726-0.898-4.588-1.589C45.531,57.394,45.391,56.135,46.081,55.272z
	 M64.87,74.348c0,0-0.378-0.188-0.911-0.563c-0.911,0.783-1.698,1.176-1.698,1.176s-41.666,26-51.999-11.5
	c0,0,6.28,10.5,13.624,10.875l-5.5,0.563c0,0,18.125,8.75,28.75-1.813c0,0-0.924,4.625-4.306,5.375
	c-2.945,0.653,15.746-2.11,17.645-11.535c0.02-0.177,0.045-0.356,0.079-0.54c0.162-1.251,0.048-2.608-0.459-4.092
	c0,0-12.322-23.667-32.411-14.667c0,0,20.135-15.108,35.711,12.44c15.621-28.386,36.053-13.054,36.053-13.054
	c-20.089-9-32.411,14.667-32.411,14.667c-4.5,13.167,20.646,16.917,17.265,16.167s-4.306-5.375-4.306-5.375
	c10.625,10.563,28.75,1.813,28.75,1.813l-5.5-0.563c7.344-0.375,13.624-10.875,13.624-10.875
	C106.536,100.348,64.87,74.348,64.87,74.348z M53.153,61.138c0.865-0.687,2.123-0.541,2.81,0.324
	c0.687,0.866,1.216,3.023,0.981,5.061c-0.824-1.038-3.43-1.71-4.116-2.575S52.287,61.824,53.153,61.138z M75.209,63.924
	c-0.687,0.866-3.292,1.538-4.116,2.576c-0.234-2.037,0.295-4.195,0.981-5.061c0.687-0.866,1.944-1.011,2.81-0.325
	C75.75,61.801,75.896,63.059,75.209,63.924z M63.959,73.785c-1.401-0.982-3.881-3.261-3.484-6.859
	c0.035-0.177,0.056-0.358,0.079-0.54c0.172-0.931,0.531-1.942,1.149-3.038c0.557-1.156,1.121-2.244,1.691-3.28
	c0.687,1.216,1.366,2.507,2.033,3.894C68.221,68.917,65.828,72.179,63.959,73.785z"/>
</svg>
